X:1559
T:Mayor Harrison's Fedora
O:ireland
R:reel
H:sometimes called "Major Harrison's Fedora", but Harrison was
H:Mayor of Chicago, not a Major.
D:Matt Molloy & Sean Keane: Contentment is Wealth
D:Donal Lunny: Live at the National Concert Hall.
Z:id:hn-reel-169
M:C|
K:Edor
GBEG B2AF|GFGA BdAG|FADF ADFA|d2cd BAGF|
GBEG B2AF|GFGA BABc|dedB AGFA|1 GEFD ~E3F:|2 GEFD ~E3z||
|:Beed ~e3f|g2fg edBA|(3FGA Bc d2 (3ABc|dfaf gfed|
Beed ~e3f|g2fg edBc|dedB AGFA|1 GEFD ~E3z:|2 GEFD ~E3F||
|:~G3F GABc|dAAG FAD2|Beed efge|fedf edBc|
d3B ~A3F|GFEF GABc|dedB AGFA|GEFD ~E3F:|
